X:1
T:The Sheltering Rock
T:William Evander Penn, 1887
T:The Sheltering Rock
T:Public Domain
T:Public Domain
C:William Evander Penn, 1887
Z:Public Domain
%%score ( 1 2 ) ( 3 4 )
L:1/8
M:4/4
K:A
V:1 treble 
V:2 treble 
V:3 bass 
V:4 bass 
V:1
 E2 | [CA]2 [CA]2 [CA]2 [Ec][DB] | [DA]2 [DF]2 [CE]3 [EA] | [EB]2 [EB]2 [EB]2 [EA][EB] | %4
w: 1.~There|a Rock in a wea-|ry land, Its sha-|dow falls on the burn-|
w: 2.~There|a Well in a des-|ert plain, Its wa-|ters call with en- treat-|
w: 3.~A|fold stands with its por-|tals wide, The sheep|a- stray on the moun-|
w: 4.~There|a cross where the Sav-|ior died; His blood|flowed out in a crim-|
 [Ec]2 [DB]2 [CA]2 [CA]2 | [Ec]2 [Ec]2 [Ec]2 [EB]2 | [FA]2 [DF]2 [DA]3 [DF] | %7
w: ing sand, In- vit-|ing pil- grims as|they pass, To seek|
w: ing strain, “Ho, ev-|ery thirst- ing, sin|sick soul, Come, free-|
w: tain side; The Shep-|herd climbs o’er moun-|tains steep; He’s search-|
w: son tide, A sac-|ri- fice for sins|of men, And free|
 E2 [EA]2 [EG]2 [EA][EB] | [Ec]2 [DB]2 [CA]3 ||"^Refrain" [Ec] | [FA]4 [DF]2 [DA]2 | %11
w: a shade in the wild-|ness. Then why|will|ye die? O|
w: ly drink, and thou shalt|whole.” Then why|will|ye die? O|
w: ing now for His wand-|sheep. Then why|will|ye die? O|
w: to all who will en-|in. Then why|will|ye die? O|
 (E2 A4) [CA]2 | [EB]4 [EB]2 [Ec]2 | [EB]6 [EA][EB] | [Ec]2 [Ec]2 [Ec]2 [EB]2 | %15
w: why * will|die? When the|shel- tering Rock|is so near by,|
w: why * will|die? When the|liv- ing Well|is so near by,|
w: why * will|die? When the|Shep- herd’s fold|is so near by,|
w: why * will|die? When the|crim- son cross|is so near by,|
 [FA]2 [DF]2 [DA]3 [DF] | (E2 A2) [CA]2 [DB]2 | [CA]6 |] %18
w: O why will ye|die? * * *||
w: O why will ye|die? * * *||
w: O why will ye|die? * * *||
w: O why will ye|die? * * *||
V:2
 E2 | x8 | x8 | x8 | x8 | x8 | x8 | E2 x6 | x7 || x | x8 | C6 x2 | x8 | x8 | x8 | x8 | C4 x4 | %17
w: is|||||||er-||||ye||||||
w: is|||||||be||||ye||||||
w: great|||||||ering||||ye||||||
w: is|||||||ter||||ye||||||
 x6 |] %18
w: |
w: |
w: |
w: |
V:3
 E,2 | [A,,E,]2 [A,,E,]2 [A,,E,]2 [A,,E,][A,,E,] | [D,F,]2 [D,A,]2 [A,,A,]3 [C,A,] | %3
 [E,G,]2 [E,G,]2 [E,G,]2 [E,F,][E,G,] | [E,A,]2 [E,G,]2 A,2 A,2 | A,2 A,2 A,2 [C,A,]2 | %6
 [D,A,]2 [D,A,]2 [D,F,]3 [D,A,] | [C,A,]2 [A,,C]2 [E,B,]2 [E,C][E,G,] | [E,A,]2 [E,G,]2 [A,,A,]3 || %9
 [A,,A,] | [D,A,]4 [D,A,]2 [F,A,]2 | A,6 A,2 | [E,G,]4 [E,G,]2 [E,A,]2 | (E,4 E,D,)[C,A,][B,,G,] | %14
 [A,,A,]2 [A,,A,]2 [A,,A,]2 [C,A,]2 | [D,A,]2 [D,A,]2 [D,F,]3 [D,A,] | [E,A,]4 E,2 E,2 | %17
 [A,,E,]6 |] %18
V:4
 E,2 | x8 | x8 | x8 | x4 A,2 A,2 | A,2 A,2 A,2 x2 | x8 | x8 | x7 || x | x8 | A,6 A,2 | x8 | %13
 G,6 x2 | x8 | x8 | x4 E,2 E,2 | x6 |] %18

